ios/Runner/AppIcons/AppIcon-dev.icon/Assets/Logo.svg

<svg xmlns="http://www.w3.org/2000/svg" width="500" height="500" fill="none" viewBox="0 0 500 500"><path fill="#000" d="M257.655 241.899c.646 0 1.323 0 1.97.187h.924a23.8 23.8 0 0 0 12.7-3.684 24.2 24.2 0 0 0 8.851-9.919 6.44 6.44 0 0 0 0-5.229 6.2 6.2 0 0 0-1.513-2.178 6.15 6.15 0 0 0-2.274-1.34 5.9 5.9 0 0 0-1.94-.311 6.1 6.1 0 0 0-3.342.967 6.2 6.2 0 0 0-2.292 2.644 11.54 11.54 0 0 1-4.218 4.698 11.36 11.36 0 0 1-6.034 1.745h-.431a10.98 10.98 0 0 1-6.742-2.614 6.45 6.45 0 0 0-4.064-1.463 6.12 6.12 0 0 0-4.218 1.68 6.2 6.2 0 0 0-1.52 2.176 6.3 6.3 0 0 0-.482 2.618c.036.901.257 1.784.649 2.593.392.81.947 1.527 1.63 2.107a23.45 23.45 0 0 0 12.346 5.323"/><path fill="#000" d="M401.103 161.311c-12.404-19.482-28.504-36.286-47.369-49.44a172.5 172.5 0 0 0-62.543-27.196l-1.878-.373q-.708-.047-1.416 0l-4.187-22.256a18.25 18.25 0 0 0-6.539-10.957 17.88 17.88 0 0 0-12.054-3.901 17.9 17.9 0 0 0-11.616 5.08 18.3 18.3 0 0 0-5.443 11.552l-1.54 17.245c-48.613 2.116-95.441 23.999-126.229 62.41a49.5 49.5 0 0 0-5.573 9.525c-7.758 1.974-14.574 6.66-19.242 13.23a39 39 0 0 0-4.649-.281 37.64 37.64 0 0 0-20.886 6.272 38.25 38.25 0 0 0-14.027 16.856l-.339.841a16.26 16.26 0 0 0-.235 12.13 16.02 16.02 0 0 0 8.21 8.85l6.157 2.801-5.665 19.393c-5.234-1.339-10.93-2.708-14.1-.623-3.172 2.086-4.434 6.693-5.943 11.237l-1.077 4.887a17 17 0 0 0-.277 1.712c-1.755 15.564 8.282 28.513 24.383 31.128l15.394 2.615a15 15 0 0 0 0 2.334c4.586 27.27 15.422 53.075 31.643 75.35 16.22 22.275 37.374 40.401 61.767 52.927 2.278 1.183 13.362 6.225 16.287 7.253a172.5 172.5 0 0 0 26.046 8.124 174 174 0 0 0 36.483 3.922c44.166-.02 86.677-16.998 118.933-47.501 3.294-3.112 13.577-14.163 16.471-17.711 23.316-28.939 36.948-64.611 38.934-101.882s-7.776-74.217-27.881-105.521zm-137.22-96.184c.03-.528.252-1.026.623-1.4a2.11 2.11 0 0 1 2.833-.146c.407.333.678.806.761 1.328l9.237 48.559s-14.778-2.863-16.533-12.202zm-4.557 52.046a30 30 0 0 0 3.448 3.112 28.5 28.5 0 0 0 9.236 4.669c1.951.587 3.95.994 5.973 1.214h1.416l7.759 26.085a29 29 0 0 1-13.762-3.548 32.6 32.6 0 0 1-12.531-9.899 35 35 0 0 1-2.124-3.362l-.862-1.556-.708-1.432zm-4.741 42.52 1.2-10.801c.678.933 1.447 1.836 2.248 2.739a52 52 0 0 0 2.555 2.708 38.47 38.47 0 0 0 23.029 11.112q1.57 0 3.233.187h3.387l8.99 32.653a.6.6 0 0 1-.298.678.58.58 0 0 1-.718-.149 35 35 0 0 0-6.774-6.599 41 41 0 0 0-3.663-2.334l-17.211-9.619-17.179-9.587zm-20.659 40.746 9.236-16.529 37.654 21.323a19.4 19.4 0 0 1 5.875 5.1 19.65 19.65 0 0 1 3.425 7.022 19.75 19.75 0 0 1-2.219 15.176l-3.079 5.292c-3.471 5.688-8.999 9.783-15.408 11.416a25.16 25.16 0 0 1-18.92-2.669l-5.172-3.113c-7.108-4.22-12.287-11.098-14.419-19.148a32.03 32.03 0 0 1 3.027-23.87m-53.693-14.723 8.62-15.035a15.46 15.46 0 0 1 6.439-6.124 15.24 15.24 0 0 1 8.709-1.533c2.013.226 3.961.861 5.726 1.867l30.788 17.463zm68.533-88.745c-.77 6.723-1.355 11.486-1.386 11.486l-2.555 16.529-4.403 38.567-22.782-12.918a30.55 30.55 0 0 0-11.731-3.86 31.26 31.26 0 0 0-17.8 3.101 31.7 31.7 0 0 0-13.203 12.463l-9.513 16.84s-16.379-23.066-32.912-25.432c14.4-17.133 32.183-31.035 52.208-40.812a158.15 158.15 0 0 1 64.077-15.964m-65.793 303.525c-22.168-11.43-41.387-27.94-56.124-48.212s-24.585-43.745-28.758-68.548l18.042 3.393a153.4 153.4 0 0 1 49.66 18.677c7.451 4.389 14.039 8.342 15.209 9.338l5.911 4.576a97.8 97.8 0 0 0 31.958 16.342s-20.258 36.855-35.898 64.434m179.799-25.836c-29.365 27.662-67.99 43.073-108.126 43.143a156.7 156.7 0 0 1-56.864-10.739l38.669-67.485c12.838 1.681 22.167-1.12 28.971-9.338a6.084 6.084 0 0 0 .585-8.405c-3.941-5.416-10.098-.28-10.098-.28-6.343 4.358-10.53 5.043-19.705 3.113a96.2 96.2 0 0 1-39.161-17.898l-6.558-5.105a126 126 0 0 0-19.581-12.451l-2.494-1.276a127.5 127.5 0 0 0-34.544-11.144l-64.223-10.988c-3.078-.498-12.315-3.113-11.237-13.634l1.078-4.918a251 251 0 0 0 46.181 10.739l5.357.809q4.618.7 9.236 1.214a220 220 0 0 0 28.017 1.712 20.7 20.7 0 0 0 5.726-.996l4.188-1.307a22.02 22.02 0 0 0 11.422-8.031 21.9 21.9 0 0 0 4.015-9.989c.489-3.616.072-7.3-1.214-10.711a22.2 22.2 0 0 0-6.818-9.335 21.83 21.83 0 0 0-10.546-4.579c-10.067-.343-65.485-9.338-85.374-17.805l1.078-3.362a22.24 22.24 0 0 1 11.213-11.577 21.88 21.88 0 0 1 16.003-.874l2.432.809a3.32 3.32 0 0 0 2.084-.171 3.37 3.37 0 0 0 1.58-1.385l1.201-2.272a22.9 22.9 0 0 1 6.253-7.417 22.6 22.6 0 0 1 8.732-4.128 22.5 22.5 0 0 1 9.639-.096 22.6 22.6 0 0 1 8.811 3.952 24 24 0 0 1 3.479 3.113l.739.778q.445.394.8.872l14.686 17.618a12.1 12.1 0 0 0 4.386 3.294 11.95 11.95 0 0 0 5.374 1.001l53.047-2.365a45.12 45.12 0 0 0-2.423 32.358c3.233 10.711 10.328 19.804 19.879 25.477l5.234 3.113a37.6 37.6 0 0 0 14.686 4.949 37.93 37.93 0 0 0 21.077-3.63 38.45 38.45 0 0 0 15.868-14.486l40.855-68.979-5.264 80.932 31.434 118.284zM79.434 237.045l5.48-19.766c7.85 1.868 17.672 4.078 27.709 6.225l5.449 1.09c19.643 3.58 35.252 4.949 35.252 4.949a8.8 8.8 0 0 1 4.219 1.889 8.96 8.96 0 0 1 2.708 3.776 9.43 9.43 0 0 1 0 6.755c-.646 1.805-2.278 5.883-10.313 6.226-11.269.871-42.549-3.642-70.504-11.144m296.023 124.51c0-.747-29.218-106.705-29.218-106.612l4.773-92.169a12.5 12.5 0 0 0-3.257-6.858 12.3 12.3 0 0 0-6.596-3.663l-1.016-.155a12.2 12.2 0 0 0-6.87 1.231 12.37 12.37 0 0 0-5.106 4.807l-17.487 29.758-24.63-87.842 1.631.312c26.567 5.727 51.235 18.255 71.641 36.382s35.869 41.247 44.906 67.147a162.1 162.1 0 0 1 6.709 80.771c-4.639 27.061-16.071 52.464-33.202 73.778"/></svg>

<svg width="500" height="500" viewBox="0 0 500 500" fill="none" xmlns="http://www.w3.org/2000/svg">
<path d="M257.655 241.899C258.301 241.899 258.978 241.899 259.625 242.086H260.549C265.04 242.083 269.44 240.807 273.249 238.402C277.059 235.998 280.125 232.561 282.1 228.483C282.465 227.661 282.654 226.77 282.654 225.868C282.654 224.967 282.465 224.076 282.1 223.254C281.757 222.426 281.241 221.683 280.587 221.076C279.933 220.469 279.158 220.012 278.313 219.736C277.688 219.525 277.033 219.419 276.373 219.425C275.19 219.416 274.03 219.752 273.031 220.392C272.032 221.033 271.236 221.95 270.739 223.036C269.793 224.968 268.332 226.596 266.521 227.734C264.71 228.872 262.62 229.477 260.487 229.479H260.056C257.582 229.396 255.208 228.475 253.314 226.865C252.163 225.923 250.729 225.407 249.25 225.402C247.683 225.399 246.175 226 245.032 227.082C244.376 227.688 243.857 228.43 243.512 229.258C243.167 230.085 243.002 230.978 243.03 231.876C243.066 232.777 243.287 233.66 243.679 234.469C244.071 235.279 244.626 235.996 245.309 236.576C248.827 239.522 253.116 241.371 257.655 241.899V241.899Z" fill="black"/>
<path d="M401.103 161.311C388.699 141.829 372.599 125.025 353.734 111.871C334.868 98.717 313.611 89.4737 291.191 84.6754L289.313 84.3018C288.842 84.271 288.368 84.271 287.897 84.3018L283.71 62.0456C282.913 57.714 280.59 53.8213 277.171 51.0893C273.752 48.3572 269.47 46.971 265.117 47.1876C260.765 47.4042 256.637 49.2089 253.501 52.2673C250.364 55.3256 248.43 59.4301 248.058 63.8199L246.518 81.0646C197.905 83.1812 151.077 105.064 120.289 143.475C118.084 146.429 116.215 149.624 114.716 153C106.958 154.974 100.142 159.66 95.4742 166.23C93.9314 166.043 92.379 165.95 90.8253 165.949C83.4064 165.93 76.1448 168.111 69.9392 172.221C63.7337 176.332 58.8568 182.193 55.9121 189.077L55.5734 189.918C53.9325 193.775 53.848 198.129 55.3378 202.048C56.8276 205.968 59.7737 209.144 63.5474 210.898L69.705 213.699L64.04 233.092C58.8061 231.753 53.1104 230.384 49.9393 232.469C46.7682 234.555 45.5059 239.162 43.9973 243.706L42.9197 248.593C42.7975 249.159 42.705 249.73 42.6426 250.305C40.8877 265.869 50.9245 278.818 67.0264 281.433L82.4203 284.048C82.3589 284.825 82.3589 285.605 82.4203 286.382C87.0056 313.652 97.8423 339.457 114.063 361.732C130.283 384.007 151.437 402.133 175.83 414.659C178.108 415.842 189.192 420.884 192.117 421.912C200.575 425.305 209.284 428.021 218.163 430.036C230.155 432.627 242.383 433.941 254.646 433.958C298.812 433.938 341.323 416.96 373.579 386.457C376.873 383.345 387.156 372.294 390.05 368.746C413.366 339.807 426.998 304.135 428.984 266.864C430.97 229.593 421.208 192.647 401.103 161.343V161.311ZM263.883 65.1272C263.913 64.599 264.135 64.1007 264.506 63.7279C264.878 63.3551 265.372 63.134 265.895 63.107C266.418 63.08 266.932 63.249 267.339 63.5816C267.746 63.9142 268.017 64.387 268.1 64.9093L277.337 113.468C277.337 113.468 262.559 110.605 260.804 101.266L263.883 65.1272ZM259.326 117.173C260.395 118.298 261.548 119.339 262.774 120.285C265.547 122.396 268.677 123.978 272.01 124.954C273.961 125.541 275.96 125.948 277.983 126.168H279.399L287.158 152.253C282.352 152.232 277.625 151.013 273.396 148.705C268.474 146.504 264.168 143.103 260.865 138.806C260.095 137.727 259.386 136.605 258.741 135.444L257.879 133.888L257.171 132.456L259.326 117.173ZM254.585 159.693L255.785 148.892C256.463 149.825 257.232 150.728 258.033 151.631C258.833 152.533 259.695 153.467 260.588 154.339C266.798 160.573 274.918 164.491 283.617 165.451C284.664 165.451 285.742 165.514 286.85 165.638C287.958 165.638 289.098 165.638 290.237 165.638L299.227 198.291C299.261 198.421 299.25 198.56 299.196 198.683C299.142 198.806 299.048 198.907 298.929 198.969C298.811 199.031 298.675 199.05 298.544 199.023C298.413 198.996 298.296 198.924 298.211 198.82C296.258 196.322 293.979 194.102 291.437 192.221C290.258 191.378 289.035 190.599 287.774 189.887L270.563 180.268L253.384 170.681L254.585 159.693ZM233.926 200.439L243.162 183.91L280.816 205.233C283.094 206.515 285.093 208.249 286.691 210.333C288.289 212.416 289.454 214.805 290.116 217.355C290.777 219.905 290.922 222.564 290.54 225.172C290.159 227.781 289.26 230.284 287.897 232.531L284.818 237.823C281.347 243.511 275.819 247.606 269.41 249.239C263 250.872 256.213 249.915 250.49 246.57L245.318 243.457C238.21 239.237 233.031 232.359 230.899 224.309C228.768 216.259 229.855 207.685 233.926 200.439ZM180.233 185.716L188.853 170.681C190.361 168.047 192.599 165.918 195.292 164.557C197.984 163.196 201.012 162.663 204.001 163.024C206.014 163.25 207.962 163.885 209.727 164.891L240.515 182.354L180.233 185.716ZM248.766 96.9708C247.996 103.694 247.411 108.457 247.38 108.457L244.825 124.986L240.422 163.553L217.64 150.635C214.027 148.561 210.037 147.248 205.909 146.775C199.804 146.033 193.617 147.111 188.109 149.876C182.601 152.641 178.012 156.972 174.906 162.339L165.393 179.179C165.393 179.179 149.014 156.113 132.481 153.747C146.881 136.614 164.664 122.712 184.689 112.935C204.714 103.157 226.54 97.7198 248.766 96.9708ZM182.973 400.496C160.805 389.066 141.586 372.556 126.849 352.284C112.112 332.012 102.264 308.539 98.0912 283.736L116.133 287.129C133.627 290.416 150.428 296.734 165.793 305.806C173.244 310.195 179.832 314.148 181.002 315.144L186.913 319.72C196.485 327.102 207.317 332.642 218.871 336.062C218.871 336.062 198.613 372.917 182.973 400.496ZM362.772 374.66C333.407 402.322 294.782 417.733 254.646 417.803C235.2 417.787 215.922 414.147 197.782 407.064L236.451 339.579C249.289 341.26 258.618 338.459 265.422 330.241C266.583 329.193 267.294 327.729 267.404 326.159C267.513 324.589 267.012 323.038 266.007 321.836C262.066 316.42 255.909 321.556 255.909 321.556C249.566 325.914 245.379 326.599 236.204 324.669C221.988 321.748 208.603 315.631 197.043 306.771L190.485 301.666C184.349 296.918 177.794 292.75 170.904 289.215L168.41 287.939C157.474 282.592 145.844 278.84 133.866 276.795L69.6434 265.807C66.5646 265.309 57.3283 262.694 58.4059 252.173L59.4835 247.255C74.5116 252.285 89.973 255.881 105.665 257.994L111.022 258.803C114.101 259.27 117.179 259.675 120.258 260.017C129.552 261.184 138.91 261.756 148.275 261.729C150.22 261.668 152.148 261.333 154.001 260.733L158.189 259.426C162.755 258.067 166.762 255.25 169.611 251.395C171.756 248.458 173.136 245.023 173.626 241.406C174.115 237.79 173.698 234.106 172.412 230.695C170.999 227.027 168.645 223.805 165.594 221.36C162.543 218.915 158.903 217.335 155.048 216.781C144.981 216.438 89.563 207.443 69.6742 198.976L70.7517 195.614C72.9256 190.473 76.9264 186.342 81.9649 184.037C87.0033 181.732 92.7133 181.42 97.968 183.163L100.4 183.972C101.095 184.141 101.825 184.081 102.484 183.801C103.143 183.521 103.697 183.036 104.064 182.416L105.265 180.144C106.8 177.248 108.933 174.719 111.518 172.727C114.103 170.735 117.081 169.328 120.25 168.599C123.419 167.87 126.706 167.837 129.889 168.503C133.072 169.168 136.076 170.516 138.7 172.455C139.958 173.375 141.123 174.418 142.179 175.568L142.918 176.346C143.214 176.608 143.482 176.9 143.718 177.218L158.404 194.836C159.598 196.259 161.098 197.386 162.79 198.13C164.482 198.875 166.32 199.217 168.164 199.131L221.211 196.766C216.42 206.863 215.555 218.412 218.788 229.124C222.021 239.835 229.116 248.928 238.667 254.601L243.901 257.714C248.407 260.368 253.407 262.053 258.587 262.663C265.811 263.5 273.121 262.242 279.664 259.033C286.206 255.825 291.71 250.801 295.532 244.547L336.387 175.568L331.123 256.5L362.557 374.784L362.772 374.66ZM79.4339 237.045L84.9141 217.279C92.7649 219.147 102.586 221.357 112.623 223.504L118.072 224.594C137.715 228.174 153.324 229.543 153.324 229.543C154.871 229.785 156.326 230.437 157.543 231.432C158.759 232.427 159.694 233.73 160.251 235.208C161.085 237.381 161.085 239.79 160.251 241.963C159.605 243.768 157.973 247.846 149.938 248.189C138.669 249.06 107.389 244.547 79.4339 237.045ZM375.457 361.555C375.457 360.808 346.239 254.85 346.239 254.943L351.012 162.774C350.66 160.201 349.522 157.803 347.755 155.916C345.988 154.029 343.682 152.749 341.159 152.253L340.143 152.098C337.784 151.83 335.398 152.257 333.273 153.329C331.148 154.4 329.375 156.07 328.167 158.136L310.68 187.894L286.05 100.052L287.681 100.364C314.248 106.091 338.916 118.619 359.322 136.746C379.729 154.873 395.191 177.993 404.228 203.893C413.266 229.792 415.576 257.604 410.937 284.664C406.298 311.725 394.866 337.128 377.735 358.442" fill="black"/>
</svg>
